X: 29467
T: Night Ride To Armagh
R: reel
M: 4/4
K: Edorian
|:E/E/EGE ABz (A|A)GED E3F|GEE/E/E AGED|[Bd]2 [Bd]2 AGED|
E/E/EGE ABz (A|A)GED E3F|GEE/E/E AGED|1 DEE/E/E EFED:|2 DEE/E/E Edcd||
|:BEE/E/E BEE (d|d)BBA Bdcd|AEE/E/E ABd(e|e)dBA Bdcd|
BEE/E/E BEE (d|d)BBA BAFA|B/B/BAF B/B/BAF|1 E2 E/E/E Edcd:|2 E2 E/E/E EFED]

